dist/img/catalog-model/car_prop_2.svg

<svg width="49" height="50" viewBox="0 0 49 50" fill="none" xmlns="http://www.w3.org/2000/svg">
<path d="M4.90966 29.3957H14.4604L13.8014 27.262C13.4216 26.0377 12.3269 25.2099 11.0981 25.2099H9.18795M13.7678 33.2785H4.90966M5.55755 16.0336H3.93783C2.77611 16.0336 1.74842 16.8265 1.40214 17.9925L1 19.3567L7.62409 20.2778M6.35066 37.2545V40.9973C6.35066 41.5453 6.77513 42 7.31132 42H13.0306C13.5556 42 13.9913 41.5569 13.9913 40.9973V39.9945M38.8232 25.1982H36.9131C35.6843 25.1982 34.5896 26.0261 34.2098 27.2503L33.5508 29.3841H43.1015M43.0903 33.2785H34.2322M40.3759 20.2778L47 19.3567L46.5979 17.9925C46.2516 16.8265 45.2239 16.0336 44.0622 16.0336H42.4424M30.8363 37.511V33.2785H24H17.1637V37.511M34.0199 39.9945V40.9973C34.0199 41.5453 34.4444 42 34.9806 42H40.6999C41.2249 42 41.6605 41.5569 41.6605 40.9973V37.2545M39.0801 16.9897L38.5775 17.3395C37.7955 17.8759 36.8796 18.1674 35.9412 18.1674H12.1034M24 37.511H7.25546C5.95969 37.511 4.90966 36.415 4.90966 35.0624V27.0171C4.90966 25.5247 5.34531 24.0556 6.17193 22.8313C7.67994 20.5576 8.76348 18.0158 9.36668 15.3224L9.93638 12.7572C10.5508 9.97051 12.9301 8 15.678 8H24.0112H32.3443C35.0811 8 37.4604 9.97051 38.086 12.7572L38.6557 15.3224C39.2589 18.0158 40.3312 20.5576 41.8504 22.8313C42.6659 24.0556 43.1127 25.5247 43.1127 27.0171V35.0624C43.1127 36.415 42.0626 37.511 40.7669 37.511H24.0223H24Z" stroke="#2453E1" stroke-width="1.5" stroke-linecap="round" stroke-linejoin="round"/>
</svg>

<svg width="49" height="50" viewBox="0 0 49 50" fill="none" xmlns="http://www.w3.org/2000/svg"><path d="M4.91 29.396h9.55l-.659-2.134c-.38-1.224-1.474-2.052-2.703-2.052h-1.91m4.58 8.069H4.91m.648-17.245h-1.62c-1.162 0-2.19.793-2.536 1.959L1 19.357l6.624.92M6.351 37.255v3.743c0 .548.424 1.003.96 1.003h5.72c.525 0 .96-.443.96-1.003v-1.002m24.832-14.797h-1.91c-1.229 0-2.323.828-2.703 2.052l-.66 2.134h9.552m-.012 3.895h-8.858m6.144-13.001L47 19.357l-.402-1.364c-.346-1.166-1.374-1.96-2.536-1.96h-1.62M30.836 37.512v-4.233H17.164v4.233m16.856 2.483v1.003c0 .548.424 1.003.96 1.003h5.72c.525 0 .96-.443.96-1.003v-3.742M39.08 16.99l-.502.35a4.66 4.66 0 01-2.637.827H12.103M24 37.511H7.255c-1.295 0-2.345-1.096-2.345-2.449v-8.045c0-1.492.435-2.961 1.262-4.186a22.452 22.452 0 003.195-7.509l.57-2.565C10.55 9.971 12.93 8 15.677 8h16.666c2.737 0 5.116 1.97 5.742 4.757l.57 2.565a22.227 22.227 0 003.194 7.51 7.585 7.585 0 011.263 4.185v8.045c0 1.353-1.05 2.449-2.346 2.449H24z" stroke="#2453E1" stroke-width="1.5" stroke-linecap="round" stroke-linejoin="round"/></svg>
